assets/logo.svg

<svg width="138" height="36" viewBox="0 0 138 36" fill="none" xmlns="http://www.w3.org/2000/svg">
<path d="M22.6389 18.585V7.48879C22.6389 7.2444 22.7194 7.03875 22.8803 6.87184C23.0413 6.70494 23.238 6.62149 23.4704 6.62149H27.1096C27.342 6.62149 27.5626 6.70494 27.7712 6.87184C27.9799 7.03875 28.1199 7.23844 28.1915 7.47091L30.8292 15.1068L33.4669 7.47091C33.5384 7.23844 33.6785 7.03875 33.8871 6.87184C34.0957 6.70494 34.3163 6.62149 34.5488 6.62149H38.1879C38.4204 6.62149 38.6141 6.70494 38.7691 6.87184C38.93 7.03875 39.0105 7.2444 39.0105 7.48879V18.585C39.0105 18.8294 38.927 19.035 38.7601 19.2019C38.5992 19.3629 38.4025 19.4434 38.17 19.4434H36.5606C36.3281 19.4434 36.1284 19.3629 35.9615 19.2019C35.8005 19.035 35.7201 18.8294 35.7201 18.585V9.84931L32.5638 18.6386C32.4803 18.8592 32.3343 19.0499 32.1257 19.2109C31.917 19.3659 31.6965 19.4434 31.464 19.4434H30.1854C29.9529 19.4434 29.7324 19.3659 29.5237 19.2109C29.3211 19.0499 29.175 18.8592 29.0856 18.6386L25.9383 9.84931V18.585C25.9383 18.8294 25.8548 19.035 25.6879 19.2019C25.527 19.3629 25.3302 19.4434 25.0978 19.4434H23.4883C23.2559 19.4434 23.0562 19.3629 22.8893 19.2019C22.7224 19.035 22.6389 18.8294 22.6389 18.585ZM40.5216 18.6208L42.7658 10.1086C43.3739 7.78982 45.3529 6.62745 48.7029 6.62149H53.5223C53.7428 6.62149 53.9246 6.70494 54.0677 6.87184C54.2167 7.03875 54.2912 7.23248 54.2912 7.45303V18.6208C54.2912 18.8532 54.2078 19.0499 54.0409 19.2109C53.874 19.3659 53.6743 19.4434 53.4418 19.4434H51.7608C51.5164 19.4434 51.3138 19.3659 51.1528 19.2109C50.9978 19.0499 50.9203 18.8473 50.9203 18.6029V16.3497H44.5631L43.964 18.6029C43.9044 18.8473 43.7703 19.0499 43.5616 19.2109C43.353 19.3659 43.1324 19.4434 42.9 19.4434H41.1385C40.906 19.4434 40.7391 19.3778 40.6378 19.2467C40.5365 19.1095 40.4858 18.9903 40.4858 18.889C40.4918 18.7877 40.5037 18.6982 40.5216 18.6208ZM45.2247 13.8193H50.9203V9.15188H48.3721C47.7998 9.15188 47.2991 9.31581 46.8699 9.64366C46.4467 9.96554 46.1606 10.4007 46.0115 10.9491L45.2247 13.8193ZM70.1621 19.0589C70.1621 19.3152 70.0101 19.4434 69.7061 19.4434H67.5602C67.3337 19.4434 67.0833 19.3629 66.8091 19.2019C66.5409 19.035 66.3352 18.8353 66.1921 18.6029L64.6721 16.2245C64.0462 15.2469 63.2892 14.7581 62.401 14.7581H60.2193V18.6029C60.2193 18.8353 60.1359 19.035 59.969 19.2019C59.808 19.3629 59.6113 19.4434 59.3788 19.4434H57.6979C57.4654 19.4434 57.2657 19.3629 57.0988 19.2019C56.9319 19.035 56.8484 18.8353 56.8484 18.6029V7.47091C56.8484 7.23844 56.9289 7.03875 57.0899 6.87184C57.2508 6.70494 57.4475 6.62149 57.68 6.62149H65.0566C66.4216 6.62149 67.5393 6.98808 68.4096 7.72127C69.2858 8.45446 69.724 9.44397 69.724 10.6898C69.724 12.4244 68.6003 13.5123 66.3531 13.9534C66.7107 14.0845 67.0416 14.311 67.3456 14.6329C67.6496 14.9488 67.9983 15.4108 68.3917 16.0188L70.019 18.6029C70.1144 18.7698 70.1621 18.9218 70.1621 19.0589ZM60.2193 12.2277H64.0283C64.6423 12.2277 65.1818 12.1055 65.6467 11.8611C66.1176 11.6167 66.3531 11.2263 66.3531 10.6898C66.3531 10.1533 66.1176 9.76287 65.6467 9.51848C65.1818 9.27408 64.6423 9.15188 64.0283 9.15188H60.2193V12.2277ZM84.9242 19.0499C84.9242 19.3122 84.7693 19.4434 84.4593 19.4434H82.4117C82.1792 19.4434 81.9289 19.3629 81.6607 19.2019C81.3924 19.035 81.1838 18.8353 81.0348 18.6029L79.4611 16.1082C79.0855 15.5002 78.707 15.0442 78.3255 14.7402C77.944 14.4303 77.485 14.2753 76.9486 14.2753H75.0262V18.6208C75.0262 18.8532 74.9427 19.0499 74.7758 19.2109C74.6149 19.3659 74.4182 19.4434 74.1857 19.4434H72.5047C72.2722 19.4434 72.0726 19.3599 71.9057 19.193C71.7387 19.0201 71.6553 18.8175 71.6553 18.585V7.47091C71.6553 7.23844 71.7387 7.03577 71.9057 6.8629C72.0726 6.69004 72.2722 6.6036 72.5047 6.6036H74.1857C74.4182 6.6036 74.6149 6.69004 74.7758 6.8629C74.9427 7.03577 75.0262 7.23844 75.0262 7.47091V11.7538H76.9486C77.4731 11.7538 77.9321 11.6108 78.3255 11.3246C78.7249 11.0385 79.1034 10.5765 79.4611 9.93872L80.847 7.47091C81.1629 6.89867 81.5921 6.60956 82.1345 6.6036H84.2C84.4861 6.6036 84.6292 6.72878 84.6292 6.97914C84.6292 7.11624 84.5785 7.28016 84.4772 7.47091L82.5369 10.9849C82.2567 11.4975 81.9408 11.9207 81.5891 12.2545C81.2434 12.5883 80.7904 12.8238 80.23 12.9609C80.6235 13.0443 81.0258 13.2917 81.4371 13.703C81.8544 14.1143 82.221 14.5614 82.5369 15.0442L84.7722 18.6029C84.8736 18.7757 84.9242 18.9248 84.9242 19.0499ZM86.2118 18.585V7.45303C86.2118 7.22055 86.2952 7.02385 86.4621 6.8629C86.6291 6.70196 86.8287 6.62149 87.0612 6.62149H97.3706C97.6031 6.62149 97.7998 6.70494 97.9607 6.87184C98.1276 7.03875 98.2111 7.23844 98.2111 7.47091V8.3114C98.2111 8.54387 98.1276 8.74356 97.9607 8.91047C97.7998 9.07141 97.6031 9.15188 97.3706 9.15188H89.5827V11.7538H96.2887C96.5212 11.7538 96.7179 11.8373 96.8788 12.0042C97.0457 12.1651 97.1292 12.3618 97.1292 12.5943V13.4348C97.1292 13.6673 97.0457 13.8669 96.8788 14.0339C96.7179 14.1948 96.5212 14.2753 96.2887 14.2753H89.5827V16.913H97.3527C97.5792 16.913 97.7729 16.9934 97.9339 17.1544C98.0948 17.3153 98.1753 17.512 98.1753 17.7445V18.6029C98.1753 18.8353 98.0918 19.035 97.9249 19.2019C97.758 19.3629 97.5583 19.4434 97.3259 19.4434H87.0612C86.8287 19.4434 86.6291 19.3629 86.4621 19.2019C86.2952 19.035 86.2118 18.8294 86.2118 18.585ZM98.7565 8.3114V7.47091C98.7565 7.22652 98.837 7.02385 98.9979 6.8629C99.1588 6.70196 99.3615 6.62149 99.6059 6.62149H110.952C111.197 6.62149 111.4 6.70196 111.56 6.8629C111.721 7.02385 111.802 7.22652 111.802 7.47091V8.3114C111.802 8.55579 111.721 8.75846 111.56 8.91941C111.4 9.07439 111.197 9.15188 110.952 9.15188H106.965V18.6208C106.965 18.8532 106.881 19.0499 106.714 19.2109C106.553 19.3659 106.357 19.4434 106.124 19.4434H104.434C104.202 19.4434 104.002 19.3659 103.835 19.2109C103.674 19.0499 103.594 18.8532 103.594 18.6208V9.15188H99.6059C99.3615 9.15188 99.1588 9.07439 98.9979 8.91941C98.837 8.75846 98.7565 8.55579 98.7565 8.3114Z" fill="#4262FF"/>
<path d="M1.31317 33.6722V22.2394C1.31317 22.0006 1.39581 21.7955 1.56111 21.6241C1.7264 21.4527 1.92843 21.367 2.16719 21.367H4.86699C5.08126 21.367 5.30777 21.4527 5.54653 21.6241C5.78528 21.7955 5.98119 22.0006 6.13424 22.2394L11.6808 30.7704V22.221C11.6808 21.9823 11.7634 21.7802 11.9287 21.6149C12.1001 21.4496 12.3052 21.367 12.544 21.367H14.1234C14.3622 21.367 14.5642 21.4496 14.7295 21.6149C14.9009 21.7802 14.9866 21.9884 14.9866 22.2394V33.6722C14.9866 33.911 14.9009 34.116 14.7295 34.2875C14.5642 34.4528 14.3622 34.5354 14.1234 34.5354H11.0747C10.8359 34.5354 10.5911 34.4528 10.34 34.2875C10.089 34.116 9.89008 33.911 9.74315 33.6722L4.66496 25.7932V33.6722C4.66496 33.911 4.57925 34.116 4.40784 34.2875C4.24254 34.4528 4.04052 34.5354 3.80176 34.5354H2.18555C1.94679 34.5354 1.74171 34.4528 1.57029 34.2875C1.39888 34.116 1.31317 33.911 1.31317 33.6722ZM22.3272 24.3609C21.3492 25.2261 20.7098 26.4234 20.4089 27.953C20.108 29.4826 20.2772 30.68 20.9167 31.5451C21.5686 32.4102 22.5842 32.8428 23.9633 32.8428C25.3425 32.8428 26.5211 32.4102 27.499 31.5451C28.4895 30.68 29.1352 29.4826 29.4361 27.953C29.737 26.4234 29.5615 25.2261 28.9095 24.3609C28.2576 23.4958 27.242 23.0633 25.8628 23.0633C24.4837 23.0633 23.3051 23.4958 22.3272 24.3609ZM31.2792 22.8752C32.3449 24.129 32.6709 25.8216 32.2571 27.953C31.8434 30.0845 30.8592 31.7771 29.3045 33.0309C27.7623 34.2846 25.8503 34.9115 23.5684 34.9115C21.2865 34.9115 19.6127 34.2846 18.547 33.0309C17.4938 31.7771 17.1741 30.0845 17.5879 27.953C18.0016 25.8216 18.9796 24.129 20.5217 22.8752C22.0639 21.6214 23.9759 20.9945 26.2578 20.9945C28.5397 20.9945 30.2135 21.6214 31.2792 22.8752ZM34.1699 33.6538V22.2577C34.1699 22.0067 34.2526 21.7955 34.4179 21.6241C34.5831 21.4527 34.7852 21.367 35.0239 21.367H38.7614C39.0002 21.367 39.2267 21.4527 39.4409 21.6241C39.6552 21.7955 39.7991 22.0006 39.8725 22.2394L42.5815 30.0816L45.2905 22.2394C45.364 22.0006 45.5078 21.7955 45.7221 21.6241C45.9364 21.4527 46.1629 21.367 46.4017 21.367H50.1391C50.3779 21.367 50.5769 21.4527 50.736 21.6241C50.9013 21.7955 50.984 22.0067 50.984 22.2577V33.6538C50.984 33.9048 50.8983 34.116 50.7268 34.2875C50.5616 34.4528 50.3595 34.5354 50.1208 34.5354H48.4678C48.2291 34.5354 48.024 34.4528 47.8526 34.2875C47.6873 34.116 47.6046 33.9048 47.6046 33.6538V24.6821L44.363 33.7089C44.2773 33.9354 44.1273 34.1313 43.9131 34.2966C43.6988 34.4558 43.4723 34.5354 43.2335 34.5354H41.9204C41.6816 34.5354 41.4551 34.4558 41.2408 34.2966C41.0327 34.1313 40.8827 33.9354 40.7908 33.7089L37.5584 24.6821V33.6538C37.5584 33.9048 37.4727 34.116 37.3013 34.2875C37.136 34.4528 36.934 34.5354 36.6952 34.5354H35.0423C34.8035 34.5354 34.5985 34.4528 34.427 34.2875C34.2556 34.116 34.1699 33.9048 34.1699 33.6538ZM53.6195 33.6538V22.221C53.6195 21.9823 53.7052 21.7802 53.8766 21.6149C54.048 21.4496 54.2531 21.367 54.4919 21.367H65.0799C65.3186 21.367 65.5206 21.4527 65.6859 21.6241C65.8574 21.7955 65.9431 22.0006 65.9431 22.2394V23.1026C65.9431 23.3413 65.8574 23.5464 65.6859 23.7178C65.5206 23.8831 65.3186 23.9658 65.0799 23.9658H57.0815V26.638H63.9687C64.2075 26.638 64.4095 26.7237 64.5748 26.8952C64.7462 27.0604 64.8319 27.2625 64.8319 27.5012V28.3644C64.8319 28.6032 64.7462 28.8083 64.5748 28.9797C64.4095 29.145 64.2075 29.2276 63.9687 29.2276H57.0815V31.9366H65.0615C65.2941 31.9366 65.4931 32.0193 65.6584 32.1846C65.8237 32.3498 65.9063 32.5519 65.9063 32.7906V33.6722C65.9063 33.911 65.8206 34.116 65.6492 34.2875C65.4778 34.4528 65.2727 34.5354 65.0339 34.5354H54.4919C54.2531 34.5354 54.048 34.4528 53.8766 34.2875C53.7052 34.116 53.6195 33.9048 53.6195 33.6538ZM81.3062 34.1405C81.3062 34.4038 81.1501 34.5354 80.8379 34.5354H78.634C78.4013 34.5354 78.1442 34.4528 77.8626 34.2875C77.5871 34.116 77.3759 33.911 77.229 33.6722L75.6679 31.2295C75.025 30.2255 74.2475 29.7235 73.3354 29.7235H71.0947V33.6722C71.0947 33.911 71.009 34.116 70.8376 34.2875C70.6723 34.4528 70.4703 34.5354 70.2315 34.5354H68.5051C68.2664 34.5354 68.0613 34.4528 67.8899 34.2875C67.7184 34.116 67.6327 33.911 67.6327 33.6722V22.2394C67.6327 22.0006 67.7154 21.7955 67.8807 21.6241C68.046 21.4527 68.248 21.367 68.4868 21.367H76.0627C77.4647 21.367 78.6125 21.7435 79.5063 22.4965C80.4063 23.2495 80.8562 24.2658 80.8562 25.5453C80.8562 27.3268 79.7022 28.444 77.3943 28.897C77.7616 29.0317 78.1013 29.2644 78.4136 29.595C78.7258 29.9194 79.0839 30.3939 79.488 31.0183L81.1593 33.6722C81.2572 33.8436 81.3062 33.9997 81.3062 34.1405ZM71.0947 27.1247H75.0067C75.6372 27.1247 76.1913 26.9992 76.6688 26.7482C77.1524 26.4972 77.3943 26.0962 77.3943 25.5453C77.3943 24.9943 77.1524 24.5933 76.6688 24.3423C76.1913 24.0913 75.6372 23.9658 75.0067 23.9658H71.0947V27.1247ZM94.9889 33.1763C93.74 34.2722 91.9034 34.8201 89.4791 34.8201C87.0609 34.8201 85.2243 34.2722 83.9693 33.1763C82.7143 32.0744 82.0868 30.3327 82.0868 27.9512C82.0868 25.5697 82.7143 23.8311 83.9693 22.7353C85.2243 21.6394 87.0609 21.0915 89.4791 21.0915C91.9034 21.0915 93.74 21.6394 94.9889 22.7353C96.2439 23.8311 96.8714 25.5697 96.8714 27.9512C96.8714 30.3327 96.2439 32.0744 94.9889 33.1763ZM92.4819 24.6729C91.8636 23.9382 90.8626 23.5709 89.4791 23.5709C88.1016 23.5709 87.1007 23.9382 86.4762 24.6729C85.8579 25.4075 85.5487 26.5033 85.5487 27.9604C85.5487 29.4113 85.8579 30.5041 86.4762 31.2387C87.1007 31.9672 88.1016 32.3315 89.4791 32.3315C90.8626 32.3315 91.8636 31.9672 92.4819 31.2387C93.1002 30.5041 93.4094 29.4113 93.4094 27.9604C93.4094 26.5033 93.1002 25.4075 92.4819 24.6729ZM97.4224 22.1384C97.3856 22.0649 97.3673 21.9853 97.3673 21.8996C97.3673 21.8078 97.4224 21.6976 97.5326 21.569C97.6489 21.4343 97.8111 21.367 98.0193 21.367H100.03C100.508 21.367 100.872 21.6578 101.123 22.2394L104.677 30.1551L108.231 22.2394C108.482 21.6639 108.846 21.3731 109.324 21.367H111.335C111.549 21.367 111.711 21.4343 111.821 21.569C111.931 21.6976 111.987 21.8078 111.987 21.8996C111.987 21.9853 111.971 22.0649 111.941 22.1384L106.651 33.5987C106.364 34.2232 105.926 34.5354 105.338 34.5354H104.016C103.428 34.5354 102.99 34.2232 102.703 33.5987L97.4224 22.1384Z" fill="#4262FF"/>
<g clip-path="url(#clip0_529_1097)">
<path d="M115.282 9.24578C115.281 9.24578 115.281 9.24535 115.281 9.24512L117.609 7.21011C117.765 7.07532 117.965 7 118.173 7H133.932C134.16 7 134.372 7.111 134.497 7.29732L134.885 7.86818C134.96 7.9772 135 8.10604 135 8.23885V19.7948C135 20.0029 134.913 20.2031 134.76 20.3478L134.292 20.7879C134.144 20.9266 133.949 21.0019 133.745 21L116.667 20.8176C116.296 20.8136 115.936 20.6888 115.644 20.4648C115.238 20.1516 115 19.6719 115 19.1645V9.8662C115 9.62867 115.103 9.40498 115.282 9.24645C115.282 9.24622 115.282 9.24578 115.282 9.24578V9.24578Z" stroke="#F04E01" stroke-width="0.6" stroke-miterlimit="10"/>
<path d="M117.691 9.149L118.427 8.43139C118.621 8.24236 118.88 8.13591 119.15 8.13224L131.527 8.0001C131.817 7.99642 132.098 8.0992 132.318 8.29007L132.669 8.5929C133.065 8.9361 133.293 9.43347 133.293 9.95653V17.7988C133.293 18.2118 133.144 18.61 132.874 18.922L132.671 19.1588C132.344 19.5368 131.87 19.7534 131.371 19.7534H119.168C118.711 19.7534 118.276 19.5479 117.988 19.1936L117.687 18.8247C117.465 18.5531 117.344 18.2118 117.344 17.8612V9.97122C117.344 9.66105 117.469 9.36556 117.691 9.149Z" stroke="#F04E01" stroke-width="0.4" stroke-miterlimit="10"/>
<path d="M117.344 11.7073H123.969C123.969 11.7073 124.674 11.6725 124.837 11.21C125.001 10.7475 124.959 10.5713 124.837 10.1271C124.716 9.683 122.363 8.10547 122.363 8.10547" stroke="#F04E01" stroke-width="0.4" stroke-miterlimit="10"/>
<path d="M133.293 11.7074H126.667C126.667 11.7074 125.963 11.6726 125.799 11.2101C125.636 10.7476 125.678 10.5714 125.799 10.1272C125.92 9.68308 128.379 8 128.379 8" stroke="#F04E01" stroke-width="0.4" stroke-miterlimit="10"/>
<path d="M123.4 11.7073V15.4843C123.4 15.5688 123.366 15.6495 123.305 15.7064C123.232 15.7762 123.118 15.8532 122.975 15.8624C122.709 15.8808 117.329 15.9158 117.329 15.9158" stroke="#F04E01" stroke-width="0.4" stroke-miterlimit="10"/>
<path d="M127.467 11.7922V15.5253C127.467 15.6464 127.519 15.762 127.614 15.8354C127.686 15.8905 127.779 15.94 127.893 15.9474C128.159 15.9657 133.205 15.9474 133.205 15.9474" stroke="#F04E01" stroke-width="0.4" stroke-miterlimit="10"/>
<path d="M122.131 19.7581L123.892 18.4057C123.992 18.3278 124.052 18.2118 124.052 18.0888V16.8767" stroke="#F04E01" stroke-width="0.4" stroke-miterlimit="10"/>
<path d="M127.534 15.7468L125.904 16.1891C125.834 16.2075 125.772 16.246 125.724 16.2993L125.702 16.3231C125.638 16.3929 125.603 16.4846 125.603 16.5801V17.4537C125.603 17.5601 125.651 17.6629 125.733 17.7308L128.161 19.7533" stroke="#F04E01" stroke-width="0.4" stroke-miterlimit="10"/>
</g>
<defs>
<clipPath id="clip0_529_1097">
<rect width="22" height="15.7429" fill="white" transform="translate(114 6.44336)"/>
</clipPath>
</defs>
</svg>

<svg width="138" height="36" fill="none" xmlns="http://www.w3.org/2000/svg"><path d="M22.639 18.585V7.489c0-.245.08-.45.241-.617a.789.789 0 0 1 .59-.25h3.64c.232 0 .453.083.661.25.209.167.349.366.42.599l2.638 7.636 2.638-7.636c.071-.233.212-.432.42-.6.209-.166.43-.25.662-.25h3.639a.76.76 0 0 1 .581.25c.161.168.242.373.242.618v11.096c0 .244-.084.45-.25.617a.802.802 0 0 1-.591.241h-1.61a.833.833 0 0 1-.599-.241.854.854 0 0 1-.24-.617V9.849l-3.157 8.79c-.084.22-.23.41-.438.572-.209.155-.43.232-.662.232h-1.279c-.232 0-.453-.077-.661-.232a1.396 1.396 0 0 1-.438-.572l-3.148-8.79v8.736c0 .244-.083.45-.25.617a.803.803 0 0 1-.59.241h-1.61a.838.838 0 0 1-.85-.858Zm17.883.036 2.244-8.512c.608-2.32 2.587-3.482 5.937-3.488h4.82c.22 0 .402.084.545.25.149.168.223.361.223.582v11.168c0 .232-.083.429-.25.59a.85.85 0 0 1-.6.232h-1.68a.841.841 0 0 1-.608-.232.841.841 0 0 1-.233-.608V16.35h-6.357l-.599 2.253c-.06.244-.194.447-.402.608-.209.155-.43.232-.662.232h-1.761c-.233 0-.4-.065-.501-.196-.102-.137-.152-.257-.152-.358.006-.101.018-.19.036-.268Zm4.703-4.802h5.695V9.152h-2.548c-.572 0-1.073.164-1.502.492-.423.322-.71.757-.858 1.305l-.787 2.87Zm24.937 5.24c0 .256-.152.384-.456.384H67.56c-.226 0-.477-.08-.75-.241a1.86 1.86 0 0 1-.618-.6l-1.52-2.378c-.626-.977-1.383-1.466-2.271-1.466h-2.182v3.845a.817.817 0 0 1-.25.599.803.803 0 0 1-.59.241h-1.681a.833.833 0 0 1-.6-.241.817.817 0 0 1-.25-.6V7.472c0-.233.08-.432.242-.6a.788.788 0 0 1 .59-.25h7.377c1.365 0 2.482.367 3.353 1.1.876.733 1.314 1.723 1.314 2.969 0 1.734-1.124 2.822-3.37 3.263a2.6 2.6 0 0 1 .992.68c.304.316.652.778 1.046 1.386l1.627 2.584a.936.936 0 0 1 .143.456Zm-9.943-6.831h3.81c.613 0 1.153-.123 1.618-.367.47-.244.706-.635.706-1.171 0-.537-.235-.927-.706-1.172-.465-.244-1.005-.366-1.619-.366H60.22v3.076Zm24.705 6.822c0 .262-.155.393-.465.393h-2.047c-.233 0-.483-.08-.751-.241a1.95 1.95 0 0 1-.626-.6l-1.574-2.494c-.376-.608-.754-1.064-1.135-1.368-.382-.31-.841-.465-1.377-.465h-1.923v4.346c0 .232-.083.429-.25.59a.819.819 0 0 1-.59.232h-1.681a.817.817 0 0 1-.6-.25.847.847 0 0 1-.25-.608V7.471c0-.233.084-.435.25-.608a.803.803 0 0 1 .6-.26h1.68c.233 0 .43.087.59.26.168.173.251.375.251.608v4.283h1.923c.524 0 .983-.143 1.377-.43.399-.285.777-.748 1.135-1.385l1.386-2.468c.316-.572.745-.861 1.288-.867H84.2c.286 0 .43.125.43.375 0 .137-.051.301-.153.492l-1.94 3.514c-.28.513-.596.936-.948 1.27-.346.333-.799.569-1.359.706.394.083.796.33 1.207.742.417.411.784.858 1.1 1.341l2.235 3.559c.102.173.152.322.152.447Zm1.288-.465V7.453c0-.232.083-.43.25-.59a.833.833 0 0 1 .6-.242H97.37c.232 0 .429.084.59.25.167.168.25.367.25.6v.84a.817.817 0 0 1-.25.6.803.803 0 0 1-.59.24h-7.788v2.603h6.706c.232 0 .429.083.59.25.167.161.25.358.25.59v.84a.818.818 0 0 1-.25.6.803.803 0 0 1-.59.241h-6.706v2.638h7.77c.226 0 .42.08.58.241.162.161.242.358.242.59v.859a.817.817 0 0 1-.25.599.833.833 0 0 1-.6.241H87.062a.838.838 0 0 1-.85-.858ZM98.756 8.311v-.84a.825.825 0 0 1 .85-.85h11.346a.825.825 0 0 1 .85.85v.84a.825.825 0 0 1-.242.608.839.839 0 0 1-.608.233h-3.987v9.469c0 .232-.084.429-.251.59a.818.818 0 0 1-.59.232h-1.69a.85.85 0 0 1-.599-.232.802.802 0 0 1-.241-.59V9.15h-3.988a.841.841 0 0 1-.608-.232.825.825 0 0 1-.242-.608ZM1.313 33.672V22.24c0-.238.083-.444.248-.615a.81.81 0 0 1 .606-.257h2.7c.214 0 .44.086.68.257.238.172.434.377.587.615l5.547 8.531v-8.549c0-.239.082-.44.248-.606a.855.855 0 0 1 .615-.248h1.58c.238 0 .44.083.605.248a.831.831 0 0 1 .258.624v11.433a.84.84 0 0 1-.258.616.824.824 0 0 1-.606.247h-3.048c-.24 0-.484-.082-.735-.247a2.037 2.037 0 0 1-.597-.616l-5.078-7.879v7.88a.84.84 0 0 1-.257.614.824.824 0 0 1-.606.248H2.186a.855.855 0 0 1-.616-.247.84.84 0 0 1-.257-.616Zm21.014-9.311c-.978.865-1.617 2.062-1.918 3.592-.301 1.53-.132 2.727.508 3.592.652.865 1.667 1.298 3.046 1.298 1.38 0 2.558-.433 3.536-1.298.99-.865 1.636-2.062 1.937-3.592.301-1.53.125-2.727-.526-3.592-.652-.865-1.668-1.298-3.047-1.298-1.38 0-2.558.433-3.536 1.298Zm8.952-1.486c1.066 1.254 1.392 2.947.978 5.078-.414 2.131-1.398 3.824-2.952 5.078-1.543 1.254-3.455 1.88-5.737 1.88s-3.955-.626-5.021-1.88c-1.053-1.254-1.373-2.947-.96-5.078.415-2.131 1.393-3.824 2.935-5.078 1.542-1.254 3.454-1.88 5.736-1.88 2.282 0 3.956.626 5.021 1.88Zm2.89 10.779V22.258c0-.251.084-.462.249-.634a.81.81 0 0 1 .606-.257h3.737c.24 0 .466.086.68.257.214.172.358.377.431.615l2.71 7.843 2.709-7.843c.073-.238.217-.444.431-.615.214-.171.44-.257.68-.257h3.737a.78.78 0 0 1 .597.257.878.878 0 0 1 .248.634v11.396a.861.861 0 0 1-.257.633.824.824 0 0 1-.606.248h-1.653a.855.855 0 0 1-.615-.247.878.878 0 0 1-.248-.634v-8.972l-3.242 9.027a1.336 1.336 0 0 1-.45.588c-.214.159-.44.238-.68.238H41.92c-.238 0-.465-.08-.68-.238a1.434 1.434 0 0 1-.45-.588l-3.232-9.027v8.972a.861.861 0 0 1-.257.633.824.824 0 0 1-.606.248h-1.653a.861.861 0 0 1-.872-.882Zm19.45 0V22.22a.81.81 0 0 1 .258-.606.855.855 0 0 1 .615-.248H65.08a.81.81 0 0 1 .606.257.84.84 0 0 1 .257.615v.864a.84.84 0 0 1-.257.615.824.824 0 0 1-.606.248h-7.998v2.672h6.887a.81.81 0 0 1 .606.257.81.81 0 0 1 .257.606v.863a.84.84 0 0 1-.257.616.824.824 0 0 1-.606.248H57.08v2.709h7.98c.233 0 .432.082.597.248a.824.824 0 0 1 .248.606v.881a.84.84 0 0 1-.257.616.855.855 0 0 1-.615.247H54.492a.861.861 0 0 1-.872-.882Zm27.687.486c0 .264-.156.395-.468.395h-2.204c-.233 0-.49-.082-.771-.247a1.909 1.909 0 0 1-.634-.616l-1.561-2.442c-.643-1.005-1.42-1.506-2.333-1.506h-2.24v3.948a.84.84 0 0 1-.257.616.824.824 0 0 1-.606.247h-1.727a.855.855 0 0 1-.615-.247.84.84 0 0 1-.257-.616V22.24c0-.238.082-.444.248-.615a.81.81 0 0 1 .606-.257h7.576c1.402 0 2.55.377 3.443 1.13.9.753 1.35 1.769 1.35 3.048 0 1.782-1.154 2.899-3.462 3.352.368.135.707.367 1.02.698.312.324.67.799 1.074 1.423l1.671 2.654a.961.961 0 0 1 .147.469Zm-10.211-7.015h3.912c.63 0 1.184-.126 1.662-.377.483-.25.725-.652.725-1.203 0-.55-.242-.952-.725-1.203-.478-.25-1.032-.376-1.662-.376h-3.912v3.159Zm23.894 6.051c-1.249 1.096-3.086 1.644-5.51 1.644-2.418 0-4.255-.548-5.51-1.644-1.255-1.102-1.882-2.843-1.882-5.225 0-2.381.627-4.12 1.882-5.216s3.092-1.643 5.51-1.643c2.424 0 4.261.547 5.51 1.643 1.255 1.096 1.882 2.835 1.882 5.216 0 2.382-.627 4.123-1.882 5.225Zm-2.507-8.503c-.618-.735-1.62-1.102-3.003-1.102-1.377 0-2.378.367-3.003 1.102-.618.735-.927 1.83-.927 3.287 0 1.451.309 2.544.927 3.279.625.728 1.626 1.092 3.003 1.092 1.384 0 2.385-.364 3.003-1.092.618-.735.927-1.828.927-3.279 0-1.457-.309-2.553-.927-3.287Zm4.94-2.535a.526.526 0 0 1-.055-.238c0-.092.055-.202.166-.331.116-.135.278-.202.486-.202h2.011c.478 0 .842.29 1.093.872l3.554 7.916 3.554-7.916c.251-.575.615-.866 1.093-.872h2.011c.214 0 .376.067.486.202.11.129.166.239.166.33a.626.626 0 0 1-.046.24l-5.29 11.46c-.287.624-.725.936-1.313.936h-1.322c-.588 0-1.026-.312-1.313-.936l-5.28-11.46Z" fill="#4262FF"/><g clip-path="url(#a)" stroke="#F04E01" stroke-miterlimit="10"><path d="M115.282 9.246h-.001l2.328-2.036a.863.863 0 0 1 .564-.21h15.759c.228 0 .44.111.565.297l.388.571a.653.653 0 0 1 .115.37v11.557a.763.763 0 0 1-.24.553l-.468.44a.787.787 0 0 1-.547.212l-17.078-.182a1.714 1.714 0 0 1-1.023-.353 1.644 1.644 0 0 1-.644-1.3V9.866c0-.237.103-.461.282-.62Z" stroke-width=".6"/><path d="m117.691 9.149.736-.718c.194-.189.453-.295.723-.299L131.527 8c.29-.004.571.1.791.29l.351.303c.396.343.624.84.624 1.364v7.842c0 .413-.149.811-.419 1.123l-.203.237a1.718 1.718 0 0 1-1.3.594h-12.203c-.457 0-.892-.205-1.18-.56l-.301-.368a1.524 1.524 0 0 1-.343-.964v-7.89c0-.31.125-.605.347-.822Z" stroke-width=".4"/><path d="M117.344 11.707h6.625s.705-.035.868-.497c.164-.463.122-.639 0-1.083-.121-.444-2.474-2.022-2.474-2.022M133.293 11.707h-6.626s-.704-.034-.868-.497c-.163-.462-.121-.639 0-1.083.121-.444 2.58-2.127 2.58-2.127M123.4 11.707v3.777a.303.303 0 0 1-.095.222.537.537 0 0 1-.33.156c-.266.019-5.646.054-5.646.054M127.467 11.792v3.733a.39.39 0 0 0 .147.31.513.513 0 0 0 .279.112c.266.019 5.312 0 5.312 0M122.131 19.758l1.761-1.352c.1-.078.16-.194.16-.317v-1.212" stroke-width=".4"/><path d="m127.534 15.747-1.63.442a.368.368 0 0 0-.18.11l-.022.024a.38.38 0 0 0-.099.257v.874c0 .106.048.209.13.277l2.428 2.022" stroke-width=".4"/></g><defs><clipPath id="a"><path fill="#fff" transform="translate(114 6.443)" d="M0 0h22v15.743H0z"/></clipPath></defs></svg>
